static/fa/svgs/solid/tarp.svg

<svg xmlns="http://www.w3.org/2000/svg" viewBox="0 0 576 512"><!--! Font Awesome Free 6.1.1 by @fontawesome - https://fontawesome.com License - https://fontawesome.com/license/free (Icons: CC BY 4.0, Fonts: SIL OFL 1.1, Code: MIT License) Copyright 2022 Fonticons, Inc.--><path d="M576 288H448c-17.7 0-32 14.3-32 32v128H64c-35.35 0-64-28.7-64-64V128c0-35.35 28.65-64 64-64h448c35.3 0 64 28.65 64 64v160zM96 192c17.7 0 32-14.3 32-32s-14.3-32-32-32c-17.67 0-32 14.3-32 32s14.33 32 32 32zm352 256V320h128L448 448z"/></svg>

<svg xmlns="http://www.w3.org/2000/svg" viewBox="0 0 576 512"><!--! Font Awesome Free 6.1.1 by @fontawesome - https://fontawesome.com License - https://fontawesome.com/license/free (Icons: CC BY 4.0, Fonts: SIL OFL 1.1, Code: MIT License) Copyright 2022 Fonticons, Inc. --><path d="M576 288H448C430.3 288 416 302.3 416 320V448H64C28.65 448 0 419.3 0 384V128C0 92.65 28.65 64 64 64H512C547.3 64 576 92.65 576 128V288zM96 192C113.7 192 128 177.7 128 160C128 142.3 113.7 128 96 128C78.33 128 64 142.3 64 160C64 177.7 78.33 192 96 192zM448 448V320H576L448 448z"/></svg>
